X: 30459
T: Old Wheel Of Fortune, The
R: strathspey
M: 4/4
K: Dmajor
|:cB|AFdF EA,CE|FAdD cDBD|AFdF EA,CE|1 FAGE Dd:|2 FdBd A2||
K: Amaj
Af|ecac e2 ef|ecac fefa|ecac eceA|decd Bcdf|
ecac e2 ef|ecac fefg|afec afec|d2 c2 Bd||

